pix_core/f/archive.svg

<svg fill="none" preserveAspectRatio="xMinYMid meet" viewBox="0 0 24 24" xmlns="http://www.w3.org/2000/svg"><path clip-rule="evenodd" d="m19.5 19c0 1.3807-1.1193 2.5-2.5 2.5h-10c-1.38071 0-2.5-1.1193-2.5-2.5v-14c0-1.38071 1.11929-2.5 2.5-2.5h6.1716c.663 0 1.2989.26339 1.7677.73223l3.8285 3.82843c.4688.46884.7322 1.10473.7322 1.76777zm-12.5-15.5c-.82843 0-1.5.67157-1.5 1.5v14c0 .8284.67157 1.5 1.5 1.5h10c.8284 0 1.5-.6716 1.5-1.5v-10c0-.27614-.2239-.5-.5-.5h-3c-.8284 0-1.5-.67157-1.5-1.5v-3c0-.27614-.2239-.5-.5-.5h-2.5v3h.5c.2761 0 .5.22386.5.5s-.2239.5-.5.5h-.5v1h.5c.2761 0 .5.22386.5.5s-.2239.5-.5.5h-.5v1h.5c.2761 0 .5.2239.5.5s-.2239.5-.5.5h-.5v1h.5c.2761 0 .5.2239.5.5s-.2239.5-.5.5h-.5v1h.5c.2761 0 .5.2239.5.5v1c0 .8284-.6716 1.5-1.5 1.5-.82843 0-1.5-.6716-1.5-1.5v-1c0-.2761.22386-.5.5-.5h.5v-2h-.5c-.27614 0-.5-.2239-.5-.5s.22386-.5.5-.5h.5v-1h-.5c-.27614 0-.5-.2239-.5-.5 0-.27614.22386-.5.5-.5h.5v-1h-.5c-.27614 0-.5-.22386-.5-.5s.22386-.5.5-.5h.5v-1h-.5c-.27614 0-.5-.22386-.5-.5s.22386-.5.5-.5h.5v-2zm7.5.70711v2.79289c0 .27614.2239.5.5.5h2.7929zm-5 11.29289v.5c0 .2761.22386.5.5.5.2761 0 .5-.2239.5-.5v-.5z" fill="#fff" fill-rule="evenodd"/></svg>

<svg viewBox="0 0 24 24" fill="none" xmlns="http://www.w3.org/2000/svg" preserveAspectRatio="xMinYMid meet">
<path fill-rule="evenodd" clip-rule="evenodd" d="M19.5 19C19.5 20.3807 18.3807 21.5 17 21.5H7C5.61929 21.5 4.5 20.3807 4.5 19V5C4.5 3.61929 5.61929 2.5 7 2.5H13.1716C13.8346 2.5 14.4705 2.76339 14.9393 3.23223L18.7678 7.06066C19.2366 7.5295 19.5 8.16539 19.5 8.82843V19ZM7 3.5C6.17157 3.5 5.5 4.17157 5.5 5V19C5.5 19.8284 6.17157 20.5 7 20.5H17C17.8284 20.5 18.5 19.8284 18.5 19V9C18.5 8.72386 18.2761 8.5 18 8.5H15C14.1716 8.5 13.5 7.82843 13.5 7V4C13.5 3.72386 13.2761 3.5 13 3.5H10.5V6.5H11C11.2761 6.5 11.5 6.72386 11.5 7C11.5 7.27614 11.2761 7.5 11 7.5H10.5V8.5H11C11.2761 8.5 11.5 8.72386 11.5 9C11.5 9.27614 11.2761 9.5 11 9.5H10.5V10.5H11C11.2761 10.5 11.5 10.7239 11.5 11C11.5 11.2761 11.2761 11.5 11 11.5H10.5V12.5H11C11.2761 12.5 11.5 12.7239 11.5 13C11.5 13.2761 11.2761 13.5 11 13.5H10.5L10.5 14.5H11C11.2761 14.5 11.5 14.7239 11.5 15V16C11.5 16.8284 10.8284 17.5 10 17.5C9.17157 17.5 8.5 16.8284 8.5 16V15C8.5 14.7239 8.72386 14.5 9 14.5H9.5L9.5 12.5H9C8.72386 12.5 8.5 12.2761 8.5 12C8.5 11.7239 8.72386 11.5 9 11.5H9.5V10.5H9C8.72386 10.5 8.5 10.2761 8.5 10C8.5 9.72386 8.72386 9.5 9 9.5H9.5V8.5H9C8.72386 8.5 8.5 8.27614 8.5 8C8.5 7.72386 8.72386 7.5 9 7.5H9.5V6.5H9C8.72386 6.5 8.5 6.27614 8.5 6C8.5 5.72386 8.72386 5.5 9 5.5L9.5 5.5V3.5H7ZM14.5 4.20711V7C14.5 7.27614 14.7239 7.5 15 7.5H17.7929L14.5 4.20711ZM9.5 15.5V16C9.5 16.2761 9.72386 16.5 10 16.5C10.2761 16.5 10.5 16.2761 10.5 16V15.5H9.5Z" fill="#fff"/>
</svg>
